src/components/Icon/utils/svgsOptimized/details.svg

<svg width="24" height="24" viewBox="0 0 24 24"  xmlns="http://www.w3.org/2000/svg">
<path fill-rule="evenodd" clip-rule="evenodd" d="M13.7929 4C13.9255 4 14.0527 4.05268 14.1464 4.14645L17.8536 7.85355C17.9473 7.94732 18 8.0745 18 8.20711V19.5C18 19.7761 17.7761 20 17.5 20H6.5C6.22386 20 6 19.7761 6 19.5V4.5C6 4.22386 6.22386 4 6.5 4H13.7929ZM8.75 7C8.33579 7 8 7.33579 8 7.75C8 8.16421 8.33579 8.5 8.75 8.5H13.25C13.6642 8.5 14 8.16421 14 7.75C14 7.33579 13.6642 7 13.25 7H8.75ZM8 11.25C8 10.8358 8.33579 10.5 8.75 10.5H15.25C15.6642 10.5 16 10.8358 16 11.25C16 11.6642 15.6642 12 15.25 12H8.75C8.33579 12 8 11.6642 8 11.25ZM8.75 14C8.33579 14 8 14.3358 8 14.75C8 15.1642 8.33579 15.5 8.75 15.5H15.25C15.6642 15.5 16 15.1642 16 14.75C16 14.3358 15.6642 14 15.25 14H8.75Z" />
</svg>

<?xml version="1.0" encoding="utf-8"?><svg width="24" height="24" xmlns="http://www.w3.org/2000/svg" viewBox="0 0 24 24"><path fill-rule="evenodd" clip-rule="evenodd" d="M13.793 4a.5.5 0 0 1 .353.146l3.708 3.708a.5.5 0 0 1 .146.353V19.5a.5.5 0 0 1-.5.5h-11a.5.5 0 0 1-.5-.5v-15a.5.5 0 0 1 .5-.5h7.293ZM8.75 7a.75.75 0 0 0 0 1.5h4.5a.75.75 0 0 0 0-1.5h-4.5ZM8 11.25a.75.75 0 0 1 .75-.75h6.5a.75.75 0 0 1 0 1.5h-6.5a.75.75 0 0 1-.75-.75ZM8.75 14a.75.75 0 0 0 0 1.5h6.5a.75.75 0 0 0 0-1.5h-6.5Z"/></svg>
